%
; (--------------------------)
; (          __              )
; (  _(\    |@@|             )
; ( (__/\__ \--/ __          )
; (    \___|----|  |   __    )
; (        \ }{ /\ )_ / _\   )
; (        /\__/\ \__O (__   )
; (       (--/\--)    \__/   )
; (       _)(  )(_           )
; (      `---''---`          )
; (    (c) by LunaX 2018     )
; (--------------------------)
         
G90 G64 G17 G40 G49G21

(set Z saftey position)
G00 Z0020.000 F400.0 

(-- Cutter compensation --)
G40 

(------- start shape -------------)
(-- A 40.000, B 80.000, Depth -10.000, Step -1.000 --)
(-- X -40.000, Y -20.000 --) 

(move Z-axis to start postion near surface)
G00 Z0003.000 F400.0 

(we allways start at lower left corner)
G00 X-040.000 Y-020.000 F600.0 

(-- loop in G2 --)

(-- Z 0000.000 --)

(set new Z -1.00 position)
G00 Z-001.000 F015.0 
G01 X-040.000 Y-020.000 Z-001.000 F300.0 
G01 X0040.000 Y-020.000 Z-001.000 F300.0 
G01 X0040.000 Y0020.000 Z-001.000 F300.0 
G01 X-040.000 Y0020.000 Z-001.000 F300.0 
G01 X-040.000 Y-020.000 Z-001.000 F300.0 

(set new Z -2.00 position)
G00 Z-002.000 F015.0 
G01 X-040.000 Y-020.000 Z-002.000 F300.0 
G01 X0040.000 Y-020.000 Z-002.000 F300.0 
G01 X0040.000 Y0020.000 Z-002.000 F300.0 
G01 X-040.000 Y0020.000 Z-002.000 F300.0 
G01 X-040.000 Y-020.000 Z-002.000 F300.0 

(set new Z -3.00 position)
G00 Z-003.000 F015.0 
G01 X-040.000 Y-020.000 Z-003.000 F300.0 
G01 X0040.000 Y-020.000 Z-003.000 F300.0 
G01 X0040.000 Y0020.000 Z-003.000 F300.0 
G01 X-040.000 Y0020.000 Z-003.000 F300.0 
G01 X-040.000 Y-020.000 Z-003.000 F300.0 

(set new Z -4.00 position)
G00 Z-004.000 F015.0 
G01 X-040.000 Y-020.000 Z-004.000 F300.0 
G01 X0040.000 Y-020.000 Z-004.000 F300.0 
G01 X0040.000 Y0020.000 Z-004.000 F300.0 
G01 X-040.000 Y0020.000 Z-004.000 F300.0 
G01 X-040.000 Y-020.000 Z-004.000 F300.0 

(set new Z -5.00 position)
G00 Z-005.000 F015.0 
G01 X-040.000 Y-020.000 Z-005.000 F300.0 
G01 X0040.000 Y-020.000 Z-005.000 F300.0 
G01 X0040.000 Y0020.000 Z-005.000 F300.0 
G01 X-040.000 Y0020.000 Z-005.000 F300.0 
G01 X-040.000 Y-020.000 Z-005.000 F300.0 

(set new Z -6.00 position)
G00 Z-006.000 F015.0 
G01 X-040.000 Y-020.000 Z-006.000 F300.0 
G01 X0040.000 Y-020.000 Z-006.000 F300.0 
G01 X0040.000 Y0020.000 Z-006.000 F300.0 
G01 X-040.000 Y0020.000 Z-006.000 F300.0 
G01 X-040.000 Y-020.000 Z-006.000 F300.0 

(set new Z -7.00 position)
G00 Z-007.000 F015.0 
G01 X-040.000 Y-020.000 Z-007.000 F300.0 
G01 X0040.000 Y-020.000 Z-007.000 F300.0 
G01 X0040.000 Y0020.000 Z-007.000 F300.0 
G01 X-040.000 Y0020.000 Z-007.000 F300.0 
G01 X-040.000 Y-020.000 Z-007.000 F300.0 

(set new Z -8.00 position)
G00 Z-008.000 F015.0 
G01 X-040.000 Y-020.000 Z-008.000 F300.0 
G01 X0040.000 Y-020.000 Z-008.000 F300.0 
G01 X0040.000 Y0020.000 Z-008.000 F300.0 
G01 X-040.000 Y0020.000 Z-008.000 F300.0 
G01 X-040.000 Y-020.000 Z-008.000 F300.0 

(set new Z -9.00 position)
G00 Z-009.000 F015.0 
G01 X-040.000 Y-020.000 Z-009.000 F300.0 
G01 X0040.000 Y-020.000 Z-009.000 F300.0 
G01 X0040.000 Y0020.000 Z-009.000 F300.0 
G01 X-040.000 Y0020.000 Z-009.000 F300.0 
G01 X-040.000 Y-020.000 Z-009.000 F300.0 

(set new Z -10.00 position)
G00 Z-010.000 F015.0 
G01 X-040.000 Y-020.000 Z-010.000 F300.0 
G01 X0040.000 Y-020.000 Z-010.000 F300.0 
G01 X0040.000 Y0020.000 Z-010.000 F300.0 
G01 X-040.000 Y0020.000 Z-010.000 F300.0 
G01 X-040.000 Y-020.000 Z-010.000 F300.0 
(----------------------------------)
(HOMEING)
G00 Z0020.000 F100.0 
G00 X0000.000 Y0000.000 F600.0 
G00 Z10 F100 M2
%
