%
; (--------------------------)
; (          __              )
; (  _(\    |@@|             )
; ( (__/\__ \--/ __          )
; (    \___|----|  |   __    )
; (        \ }{ /\ )_ / _\   )
; (        /\__/\ \__O (__   )
; (       (--/\--)    \__/   )
; (       _)(  )(_           )
; (      `---''---`          )
; (    (c) by LunaX 2018     )
; (--------------------------)
         
G90 G64 G17 G40 G49G21

(set Z saftey position)
G00 Z0020.000 F400.0 

(set center position)
G00 X0000.000 Y0000.000 F600.0 

(------- start shape -------------)

(move Z-axis to start postion near surface)
G00 Z0003.000 F400.0 
(-- cutter compensation --)
G40 

(-- START DEPTH Loop --)
  (-- START Track Loop  --)

  (-- next depth z -001.000 --)
  G01 Z-001.000 
  G01 X0000.000 Y0000.000 F300.0
  G02 X-020.000 Y0020.000 I0000.000 J0020.000 F300.0
  G01 X-020.000 Y0050.000 F300.0
  G02 X0000.000 Y0070.000 I0020.000 J0000.000 F300.0
  G01 X0060.000 Y0070.000 F300.0
  G02 X0080.000 Y0050.000 I0000.000 J-020.000 F300.0
  G01 X0080.000 Y0020.000 F300.0
  G02 X0060.000 Y0000.000 I-020.000 J0000.000 F300.0
  G01 X0000.000 Y0000.000 F300.0
  (-- END Track Loop  --)
  (-- START Track Loop  --)

  (-- next depth z -001.500 --)
  G01 Z-001.500 
  G01 X0000.000 Y0000.000 F300.0
  G02 X-020.000 Y0020.000 I0000.000 J0020.000 F300.0
  G01 X-020.000 Y0050.000 F300.0
  G02 X0000.000 Y0070.000 I0020.000 J0000.000 F300.0
  G01 X0060.000 Y0070.000 F300.0
  G02 X0080.000 Y0050.000 I0000.000 J-020.000 F300.0
  G01 X0080.000 Y0020.000 F300.0
  G02 X0060.000 Y0000.000 I-020.000 J0000.000 F300.0
  G01 X0000.000 Y0000.000 F300.0
  (-- END Track Loop  --)
(-- END DEPTH loop --)
(HOMEING)
G00 Z0020.000 F100.0 
G00 X0000.000 Y0000.000 F600.0 
G00 Z10 F100 M2
%
