%
; (--------------------------)
; (          __              )
; (  _(\    |@@|             )
; ( (__/\__ \--/ __          )
; (    \___|----|  |   __    )
; (        \ }{ /\ )_ / _\   )
; (        /\__/\ \__O (__   )
; (       (--/\--)    \__/   )
; (       _)(  )(_           )
; (      `---''---`          )
; (    (c) by LunaX 2018     )
; (--------------------------)
         
G90 G64 G17 G40 G49 G21
(set Z saftey position)
G00 Z0020.000 F400.0 
G00 X0005.000 Y0000.000 F600.0 
(-- cutter compensation --)
G40 

(move Z-axis to start postion near surface)
G01 Z0003.000 F015.0 

(-- START circel --)
(-- Dia 03.000, Depth -10.000, Step Z -1.000 --)
(-- X 05.000, Y 00.000 --) 
(-- LOOP --)

  (set new Z -1.00 position)
  G01 Z-001.000 F400.0 
  G2 X0005.000 Y0000.000 I-005.000 J-000.000 F300.0 

  (set new Z -2.00 position)
  G01 Z-002.000 F400.0 
  G2 X0005.000 Y0000.000 I-005.000 J-000.000 F300.0 

  (set new Z -3.00 position)
  G01 Z-003.000 F400.0 
  G2 X0005.000 Y0000.000 I-005.000 J-000.000 F300.0 

  (set new Z -4.00 position)
  G01 Z-004.000 F400.0 
  G2 X0005.000 Y0000.000 I-005.000 J-000.000 F300.0 

  (set new Z -5.00 position)
  G01 Z-005.000 F400.0 
  G2 X0005.000 Y0000.000 I-005.000 J-000.000 F300.0 

  (set new Z -6.00 position)
  G01 Z-006.000 F400.0 
  G2 X0005.000 Y0000.000 I-005.000 J-000.000 F300.0 

  (set new Z -7.00 position)
  G01 Z-007.000 F400.0 
  G2 X0005.000 Y0000.000 I-005.000 J-000.000 F300.0 

  (set new Z -8.00 position)
  G01 Z-008.000 F400.0 
  G2 X0005.000 Y0000.000 I-005.000 J-000.000 F300.0 

  (set new Z -9.00 position)
  G01 Z-009.000 F400.0 
  G2 X0005.000 Y0000.000 I-005.000 J-000.000 F300.0 

  (set new Z -10.00 position)
  G01 Z-010.000 F400.0 
  G2 X0005.000 Y0000.000 I-005.000 J-000.000 F300.0 


(-- END circle -)
(HOMEING)
G00 Z0020.000 F400.0 
G00 X0000.000 Y0000.000 F600.0 

G00 Z10 F100 M2
%
