%
; (--------------------------)
; (          __              )
; (  _(\    |@@|             )
; ( (__/\__ \--/ __          )
; (    \___|----|  |   __    )
; (        \ }{ /\ )_ / _\   )
; (        /\__/\ \__O (__   )
; (       (--/\--)    \__/   )
; (       _)(  )(_           )
; (      `---''---`          )
; (    (c) by LunaX 2018     )
; (--------------------------)
         
G90 G64 G17 G40 G49G21

(set Z saftey position)
G00 Z0020.000 F400.0 

(set center position)
G00 X0000.000 Y0000.000 F600.0 

(------- start shape -------------)

(move Z-axis to start postion near surface)
G00 Z0003.000 F400.0 

(-- START DEPTH Loop --)
  (-- START Track Loop  --)

  (-- next depth z -000.500 --)
   G00 X0028.500 Y0000.000 F0600.000
   G01 Z-000.500 F0015.000
   G02 I-028.500 F0300.000

  (-- next depth z -000.500 --)
   G00 X0026.700 Y0000.000 F0600.000
   G01 Z-000.500 F0015.000
   G02 I-026.700 F0300.000

  (-- next depth z -000.500 --)
   G00 X0024.900 Y0000.000 F0600.000
   G01 Z-000.500 F0015.000
   G02 I-024.900 F0300.000

  (-- next depth z -000.500 --)
   G00 X0023.100 Y0000.000 F0600.000
   G01 Z-000.500 F0015.000
   G02 I-023.100 F0300.000

  (-- next depth z -000.500 --)
   G00 X0021.300 Y0000.000 F0600.000
   G01 Z-000.500 F0015.000
   G02 I-021.300 F0300.000

  (-- next depth z -000.500 --)
   G00 X0019.500 Y0000.000 F0600.000
   G01 Z-000.500 F0015.000
   G02 I-019.500 F0300.000

  (-- next depth z -000.500 --)
   G00 X0017.700 Y0000.000 F0600.000
   G01 Z-000.500 F0015.000
   G02 I-017.700 F0300.000

  (-- next depth z -000.500 --)
   G00 X0015.900 Y0000.000 F0600.000
   G01 Z-000.500 F0015.000
   G02 I-015.900 F0300.000

  (-- next depth z -000.500 --)
   G00 X0014.100 Y0000.000 F0600.000
   G01 Z-000.500 F0015.000
   G02 I-014.100 F0300.000

  (-- next depth z -000.500 --)
   G00 X0012.300 Y0000.000 F0600.000
   G01 Z-000.500 F0015.000
   G02 I-012.300 F0300.000

  (-- next depth z -000.500 --)
   G00 X0010.500 Y0000.000 F0600.000
   G01 Z-000.500 F0015.000
   G02 I-010.500 F0300.000

  (-- next depth z -000.500 --)
   G00 X0008.700 Y0000.000 F0600.000
   G01 Z-000.500 F0015.000
   G02 I-008.700 F0300.000

  (-- next depth z -000.500 --)
   G00 X0006.900 Y0000.000 F0600.000
   G01 Z-000.500 F0015.000
   G02 I-006.900 F0300.000

  (-- next depth z -000.500 --)
   G00 X0006.500 Y0000.000 F0600.000
   G01 Z-000.500 F0015.000
   G02 I-006.500 F0300.000
  (-- END Track Loop  --)
  (-- START Track Loop  --)

  (-- next depth z -001.000 --)
   G00 X0028.500 Y0000.000 F0600.000
   G01 Z-001.000 F0015.000
   G02 I-028.500 F0300.000

  (-- next depth z -001.000 --)
   G00 X0026.700 Y0000.000 F0600.000
   G01 Z-001.000 F0015.000
   G02 I-026.700 F0300.000

  (-- next depth z -001.000 --)
   G00 X0024.900 Y0000.000 F0600.000
   G01 Z-001.000 F0015.000
   G02 I-024.900 F0300.000

  (-- next depth z -001.000 --)
   G00 X0023.100 Y0000.000 F0600.000
   G01 Z-001.000 F0015.000
   G02 I-023.100 F0300.000

  (-- next depth z -001.000 --)
   G00 X0021.300 Y0000.000 F0600.000
   G01 Z-001.000 F0015.000
   G02 I-021.300 F0300.000

  (-- next depth z -001.000 --)
   G00 X0019.500 Y0000.000 F0600.000
   G01 Z-001.000 F0015.000
   G02 I-019.500 F0300.000

  (-- next depth z -001.000 --)
   G00 X0017.700 Y0000.000 F0600.000
   G01 Z-001.000 F0015.000
   G02 I-017.700 F0300.000

  (-- next depth z -001.000 --)
   G00 X0015.900 Y0000.000 F0600.000
   G01 Z-001.000 F0015.000
   G02 I-015.900 F0300.000

  (-- next depth z -001.000 --)
   G00 X0014.100 Y0000.000 F0600.000
   G01 Z-001.000 F0015.000
   G02 I-014.100 F0300.000

  (-- next depth z -001.000 --)
   G00 X0012.300 Y0000.000 F0600.000
   G01 Z-001.000 F0015.000
   G02 I-012.300 F0300.000

  (-- next depth z -001.000 --)
   G00 X0010.500 Y0000.000 F0600.000
   G01 Z-001.000 F0015.000
   G02 I-010.500 F0300.000

  (-- next depth z -001.000 --)
   G00 X0008.700 Y0000.000 F0600.000
   G01 Z-001.000 F0015.000
   G02 I-008.700 F0300.000

  (-- next depth z -001.000 --)
   G00 X0006.900 Y0000.000 F0600.000
   G01 Z-001.000 F0015.000
   G02 I-006.900 F0300.000

  (-- next depth z -001.000 --)
   G00 X0006.500 Y0000.000 F0600.000
   G01 Z-001.000 F0015.000
   G02 I-006.500 F0300.000
  (-- END Track Loop  --)
  (-- START Track Loop  --)

  (-- next depth z -001.500 --)
   G00 X0028.500 Y0000.000 F0600.000
   G01 Z-001.500 F0015.000
   G02 I-028.500 F0300.000

  (-- next depth z -001.500 --)
   G00 X0026.700 Y0000.000 F0600.000
   G01 Z-001.500 F0015.000
   G02 I-026.700 F0300.000

  (-- next depth z -001.500 --)
   G00 X0024.900 Y0000.000 F0600.000
   G01 Z-001.500 F0015.000
   G02 I-024.900 F0300.000

  (-- next depth z -001.500 --)
   G00 X0023.100 Y0000.000 F0600.000
   G01 Z-001.500 F0015.000
   G02 I-023.100 F0300.000

  (-- next depth z -001.500 --)
   G00 X0021.300 Y0000.000 F0600.000
   G01 Z-001.500 F0015.000
   G02 I-021.300 F0300.000

  (-- next depth z -001.500 --)
   G00 X0019.500 Y0000.000 F0600.000
   G01 Z-001.500 F0015.000
   G02 I-019.500 F0300.000

  (-- next depth z -001.500 --)
   G00 X0017.700 Y0000.000 F0600.000
   G01 Z-001.500 F0015.000
   G02 I-017.700 F0300.000

  (-- next depth z -001.500 --)
   G00 X0015.900 Y0000.000 F0600.000
   G01 Z-001.500 F0015.000
   G02 I-015.900 F0300.000

  (-- next depth z -001.500 --)
   G00 X0014.100 Y0000.000 F0600.000
   G01 Z-001.500 F0015.000
   G02 I-014.100 F0300.000

  (-- next depth z -001.500 --)
   G00 X0012.300 Y0000.000 F0600.000
   G01 Z-001.500 F0015.000
   G02 I-012.300 F0300.000

  (-- next depth z -001.500 --)
   G00 X0010.500 Y0000.000 F0600.000
   G01 Z-001.500 F0015.000
   G02 I-010.500 F0300.000

  (-- next depth z -001.500 --)
   G00 X0008.700 Y0000.000 F0600.000
   G01 Z-001.500 F0015.000
   G02 I-008.700 F0300.000

  (-- next depth z -001.500 --)
   G00 X0006.900 Y0000.000 F0600.000
   G01 Z-001.500 F0015.000
   G02 I-006.900 F0300.000

  (-- next depth z -001.500 --)
   G00 X0006.500 Y0000.000 F0600.000
   G01 Z-001.500 F0015.000
   G02 I-006.500 F0300.000
  (-- END Track Loop  --)
  (-- START Track Loop  --)

  (-- next depth z -002.000 --)
   G00 X0028.500 Y0000.000 F0600.000
   G01 Z-002.000 F0015.000
   G02 I-028.500 F0300.000

  (-- next depth z -002.000 --)
   G00 X0026.700 Y0000.000 F0600.000
   G01 Z-002.000 F0015.000
   G02 I-026.700 F0300.000

  (-- next depth z -002.000 --)
   G00 X0024.900 Y0000.000 F0600.000
   G01 Z-002.000 F0015.000
   G02 I-024.900 F0300.000

  (-- next depth z -002.000 --)
   G00 X0023.100 Y0000.000 F0600.000
   G01 Z-002.000 F0015.000
   G02 I-023.100 F0300.000

  (-- next depth z -002.000 --)
   G00 X0021.300 Y0000.000 F0600.000
   G01 Z-002.000 F0015.000
   G02 I-021.300 F0300.000

  (-- next depth z -002.000 --)
   G00 X0019.500 Y0000.000 F0600.000
   G01 Z-002.000 F0015.000
   G02 I-019.500 F0300.000

  (-- next depth z -002.000 --)
   G00 X0017.700 Y0000.000 F0600.000
   G01 Z-002.000 F0015.000
   G02 I-017.700 F0300.000

  (-- next depth z -002.000 --)
   G00 X0015.900 Y0000.000 F0600.000
   G01 Z-002.000 F0015.000
   G02 I-015.900 F0300.000

  (-- next depth z -002.000 --)
   G00 X0014.100 Y0000.000 F0600.000
   G01 Z-002.000 F0015.000
   G02 I-014.100 F0300.000

  (-- next depth z -002.000 --)
   G00 X0012.300 Y0000.000 F0600.000
   G01 Z-002.000 F0015.000
   G02 I-012.300 F0300.000

  (-- next depth z -002.000 --)
   G00 X0010.500 Y0000.000 F0600.000
   G01 Z-002.000 F0015.000
   G02 I-010.500 F0300.000

  (-- next depth z -002.000 --)
   G00 X0008.700 Y0000.000 F0600.000
   G01 Z-002.000 F0015.000
   G02 I-008.700 F0300.000

  (-- next depth z -002.000 --)
   G00 X0006.900 Y0000.000 F0600.000
   G01 Z-002.000 F0015.000
   G02 I-006.900 F0300.000

  (-- next depth z -002.000 --)
   G00 X0006.500 Y0000.000 F0600.000
   G01 Z-002.000 F0015.000
   G02 I-006.500 F0300.000
  (-- END Track Loop  --)
  (-- START Track Loop  --)

  (-- next depth z -002.500 --)
   G00 X0028.500 Y0000.000 F0600.000
   G01 Z-002.500 F0015.000
   G02 I-028.500 F0300.000

  (-- next depth z -002.500 --)
   G00 X0026.700 Y0000.000 F0600.000
   G01 Z-002.500 F0015.000
   G02 I-026.700 F0300.000

  (-- next depth z -002.500 --)
   G00 X0024.900 Y0000.000 F0600.000
   G01 Z-002.500 F0015.000
   G02 I-024.900 F0300.000

  (-- next depth z -002.500 --)
   G00 X0023.100 Y0000.000 F0600.000
   G01 Z-002.500 F0015.000
   G02 I-023.100 F0300.000

  (-- next depth z -002.500 --)
   G00 X0021.300 Y0000.000 F0600.000
   G01 Z-002.500 F0015.000
   G02 I-021.300 F0300.000

  (-- next depth z -002.500 --)
   G00 X0019.500 Y0000.000 F0600.000
   G01 Z-002.500 F0015.000
   G02 I-019.500 F0300.000

  (-- next depth z -002.500 --)
   G00 X0017.700 Y0000.000 F0600.000
   G01 Z-002.500 F0015.000
   G02 I-017.700 F0300.000

  (-- next depth z -002.500 --)
   G00 X0015.900 Y0000.000 F0600.000
   G01 Z-002.500 F0015.000
   G02 I-015.900 F0300.000

  (-- next depth z -002.500 --)
   G00 X0014.100 Y0000.000 F0600.000
   G01 Z-002.500 F0015.000
   G02 I-014.100 F0300.000

  (-- next depth z -002.500 --)
   G00 X0012.300 Y0000.000 F0600.000
   G01 Z-002.500 F0015.000
   G02 I-012.300 F0300.000

  (-- next depth z -002.500 --)
   G00 X0010.500 Y0000.000 F0600.000
   G01 Z-002.500 F0015.000
   G02 I-010.500 F0300.000

  (-- next depth z -002.500 --)
   G00 X0008.700 Y0000.000 F0600.000
   G01 Z-002.500 F0015.000
   G02 I-008.700 F0300.000

  (-- next depth z -002.500 --)
   G00 X0006.900 Y0000.000 F0600.000
   G01 Z-002.500 F0015.000
   G02 I-006.900 F0300.000

  (-- next depth z -002.500 --)
   G00 X0006.500 Y0000.000 F0600.000
   G01 Z-002.500 F0015.000
   G02 I-006.500 F0300.000
  (-- END Track Loop  --)
  (-- START Track Loop  --)

  (-- next depth z -003.000 --)
   G00 X0028.500 Y0000.000 F0600.000
   G01 Z-003.000 F0015.000
   G02 I-028.500 F0300.000

  (-- next depth z -003.000 --)
   G00 X0026.700 Y0000.000 F0600.000
   G01 Z-003.000 F0015.000
   G02 I-026.700 F0300.000

  (-- next depth z -003.000 --)
   G00 X0024.900 Y0000.000 F0600.000
   G01 Z-003.000 F0015.000
   G02 I-024.900 F0300.000

  (-- next depth z -003.000 --)
   G00 X0023.100 Y0000.000 F0600.000
   G01 Z-003.000 F0015.000
   G02 I-023.100 F0300.000

  (-- next depth z -003.000 --)
   G00 X0021.300 Y0000.000 F0600.000
   G01 Z-003.000 F0015.000
   G02 I-021.300 F0300.000

  (-- next depth z -003.000 --)
   G00 X0019.500 Y0000.000 F0600.000
   G01 Z-003.000 F0015.000
   G02 I-019.500 F0300.000

  (-- next depth z -003.000 --)
   G00 X0017.700 Y0000.000 F0600.000
   G01 Z-003.000 F0015.000
   G02 I-017.700 F0300.000

  (-- next depth z -003.000 --)
   G00 X0015.900 Y0000.000 F0600.000
   G01 Z-003.000 F0015.000
   G02 I-015.900 F0300.000

  (-- next depth z -003.000 --)
   G00 X0014.100 Y0000.000 F0600.000
   G01 Z-003.000 F0015.000
   G02 I-014.100 F0300.000

  (-- next depth z -003.000 --)
   G00 X0012.300 Y0000.000 F0600.000
   G01 Z-003.000 F0015.000
   G02 I-012.300 F0300.000

  (-- next depth z -003.000 --)
   G00 X0010.500 Y0000.000 F0600.000
   G01 Z-003.000 F0015.000
   G02 I-010.500 F0300.000

  (-- next depth z -003.000 --)
   G00 X0008.700 Y0000.000 F0600.000
   G01 Z-003.000 F0015.000
   G02 I-008.700 F0300.000

  (-- next depth z -003.000 --)
   G00 X0006.900 Y0000.000 F0600.000
   G01 Z-003.000 F0015.000
   G02 I-006.900 F0300.000

  (-- next depth z -003.000 --)
   G00 X0006.500 Y0000.000 F0600.000
   G01 Z-003.000 F0015.000
   G02 I-006.500 F0300.000
  (-- END Track Loop  --)
(-- END DEPTH loop --)
(HOMEING)
G00 Z0020.000 F100.0 
G00 X0030.000 Y0000.000 F600.0 
G00 Z10 F100 M2
%
